Assets/Icons/interaction/microphone-on.svg

<svg enable-background="new 0 0 60 60" viewBox="0 0 60 60" xmlns="http://www.w3.org/2000/svg"><path d="m46.83 24h-1.66c-.28 0-.5.22-.5.5v22.17h-20.67c-4.79 0-8.67-3.88-8.67-8.67v-13.5c0-.28-.22-.5-.5-.5-1.19 0-2.16.97-2.16 2.16v11.84c0 6.26 5.07 11.33 11.33 11.33h4.59v6.26h-13.09c-.28 0-.5.22-.5.5v.32c0 1.1.9 2 2 2h27.5c.28 0 .5-.22.5-.5v-1.82c0-.28-.22-.5-.5-.5h-13.09v-6.26h13.92c1.1 0 2-.9 2-2v-22.83c0-.28-.22-.5-.5-.5z"/><path d="m30 43.5c5.79 0 10.5-4.71 10.5-10.5v-21c0-5.79-4.71-10.5-10.5-10.5s-10.5 4.71-10.5 10.5v21c0 5.79 4.71 10.5 10.5 10.5zm-7.5-31.5c0-4.14 3.36-7.5 7.5-7.5s7.5 3.36 7.5 7.5v21c0 4.14-3.36 7.5-7.5 7.5s-7.5-3.36-7.5-7.5z"/></svg>

<?xml version="1.0" encoding="utf-8"?>
<!-- Generator: Adobe Illustrator 21.1.0, SVG Export Plug-In . SVG Version: 6.00 Build 0)  -->
<svg version="1.1" id="EPS" xmlns="http://www.w3.org/2000/svg" xmlns:xlink="http://www.w3.org/1999/xlink" x="0px" y="0px"
	 viewBox="0 0 60 60" style="enable-background:new 0 0 60 60;" xml:space="preserve">
<g>
	<path d="M46.83,24h-1.66c-0.28,0-0.5,0.22-0.5,0.5v22.17H24c-4.79,0-8.67-3.88-8.67-8.67V24.5c0-0.28-0.22-0.5-0.5-0.5
		c-1.19,0-2.16,0.97-2.16,2.16V38c0,6.26,5.07,11.33,11.33,11.33h4.59v6.26H15.5c-0.28,0-0.5,0.22-0.5,0.5v0.32c0,1.1,0.9,2,2,2
		h27.5c0.28,0,0.5-0.22,0.5-0.5v-1.82c0-0.28-0.22-0.5-0.5-0.5H31.41v-6.26h13.92c1.1,0,2-0.9,2-2V24.5
		C47.33,24.22,47.11,24,46.83,24z"/>
	<path d="M30,43.5c5.79,0,10.5-4.71,10.5-10.5V12c0-5.79-4.71-10.5-10.5-10.5S19.5,6.21,19.5,12v21C19.5,38.79,24.21,43.5,30,43.5z
		 M22.5,12c0-4.14,3.36-7.5,7.5-7.5s7.5,3.36,7.5,7.5v21c0,4.14-3.36,7.5-7.5,7.5s-7.5-3.36-7.5-7.5V12z"/>
</g>
</svg>
